X:1
T:Abraham
C:Traditioneel
O:Hoogstraten (Vlaanderen)
Z:Bert Van Vreckem <http://flanders.blackmill.net/music/>
M:2/4
L:1/8
K:G
D/D/|GG GA|B2 BB/B/|AA AB|G2z2||
BB BA/B/|cA AA/B/|cB ce|d2 zc|
w:A-bra-ham was ne goe-ie vent vol-le-gens het tes-ta-ment. Hij
BB Bc|dd de|dc BA|d2z2|
w:had wel ze-ven zo-nen, maar ik hem ze nie ge-kend.
|:BB BA/B/|cA AA/B/|cB ce|d2 zc|BB Bc|dd de|dc BA|G2 zD/D/:|
w:*****    *****    ****  **   ****  ****  ****  *(A-bra)-
GG GA|B2 BB/B/|AA AA|G2 z d/d/|
w:ham had ze-ven zo-nen en ze dee-en al'-maal zo. En ze
cc cc/c/|BB BB/B/|AA AA|G2 z D/D/|
w:1.~~zaai-den zo en ze maai-den zo en ze dans-ten al'-maal zo. **
w:2.~~a-ten zo en ze dron-ken zo en ze slie-pen al'-maal zo. **
|:GG GA|B2 BB/B/|AA AA|G2 z d/d/|cc cc/c/|BB BB/B/|AA AA|G2 z:|

